images/Icon 3.svg

<svg width="264" height="112" viewBox="0 0 264 112" fill="none" xmlns="http://www.w3.org/2000/svg">
<rect width="264" height="112" rx="4" fill="#F4F4FD"/>
<g clip-path="url(#clip0_297080_1792)">
<path d="M129.851 53.9292H131.983V63.5242H129.851V53.9292Z" fill="#4D5AE5"/>
<path d="M138.38 58.1936H140.512V63.5242H138.38V58.1936Z" fill="#4D5AE5"/>
<path d="M121.322 61.392H123.454V63.5242H121.322V61.392Z" fill="#4D5AE5"/>
<path d="M114.926 60.3258H117.058V63.5241H114.926V60.3258Z" fill="#4D5AE5"/>
<path d="M103.198 80.5819H154.372C156.138 80.5819 157.57 79.1499 157.57 77.3836V73.1192C157.57 71.3529 156.138 69.9209 154.372 69.9209H153.305V43.3343L159.361 37.5977C160.767 38.2905 162.468 37.8699 163.388 36.6003C164.308 35.3312 164.179 33.5836 163.083 32.4634C161.986 31.3431 160.242 31.176 158.953 32.0678C157.664 32.96 157.206 34.6513 157.868 36.0719L153.305 40.3973V37.9376C153.305 36.1713 151.873 34.7393 150.107 34.7393H107.463C105.696 34.7393 104.264 36.1713 104.264 37.9376V69.9209H103.198C101.432 69.9209 100 71.3529 100 73.1192V77.3836C100 79.1499 101.432 80.5819 103.198 80.5819ZM160.768 33.6732C161.357 33.6732 161.834 34.1505 161.834 34.7393C161.834 35.328 161.357 35.8054 160.768 35.8054C160.179 35.8054 159.702 35.328 159.702 34.7393C159.702 34.1505 160.179 33.6732 160.768 33.6732ZM106.397 37.9376C106.397 37.3489 106.874 36.8715 107.463 36.8715H150.107C150.696 36.8715 151.173 37.3489 151.173 37.9376V42.4149L149.041 44.441V40.0698C149.041 39.4811 148.564 39.0037 147.975 39.0037H109.595C109.006 39.0037 108.529 39.4811 108.529 40.0698V66.7225C108.529 67.3113 109.006 67.7886 109.595 67.7886H147.975C148.564 67.7886 149.041 67.3113 149.041 66.7225V47.3738L151.173 45.3535V69.9209H106.397V37.9376ZM115.992 51.797C114.549 51.7929 113.283 52.7538 112.899 54.1442C112.515 55.5346 113.109 57.0094 114.35 57.7455C115.59 58.4815 117.17 58.2967 118.206 57.2936L121.912 59.1531C122.342 59.3686 122.865 59.2676 123.185 58.9079L131.062 50.0453L138.806 55.848C139.222 56.1593 139.802 56.126 140.178 55.7694L146.909 49.3941V65.6564H110.661V41.1359H146.909V46.4566L139.366 53.5997L131.557 47.7455C131.113 47.4134 130.489 47.4758 130.121 47.8897L122.135 56.8751L119.149 55.3821C119.171 55.2541 119.185 55.125 119.19 54.9953C119.19 53.2291 117.758 51.797 115.992 51.797ZM117.058 54.9953C117.058 55.5841 116.58 56.0615 115.992 56.0615C115.403 56.0615 114.926 55.5841 114.926 54.9953C114.926 54.4066 115.403 53.9292 115.992 53.9292C116.58 53.9292 117.058 54.4066 117.058 54.9953ZM123.454 72.0531H134.115V73.1192C134.115 73.7079 133.638 74.1853 133.049 74.1853H124.52C123.932 74.1853 123.454 73.7079 123.454 73.1192V72.0531ZM102.132 73.1192C102.132 72.5304 102.61 72.0531 103.198 72.0531H121.322V73.1192C121.322 74.8855 122.754 76.3175 124.52 76.3175H133.049C134.816 76.3175 136.248 74.8855 136.248 73.1192V72.0531H154.372C154.96 72.0531 155.438 72.5304 155.438 73.1192V77.3836C155.438 77.9724 154.96 78.4497 154.372 78.4497H103.198C102.61 78.4497 102.132 77.9724 102.132 77.3836V73.1192Z" fill="#2E2F42"/>
</g>
<defs>
<clipPath id="clip0_297080_1792">
<rect width="64" height="64" fill="white" transform="translate(100 24)"/>
</clipPath>
</defs>
</svg>

<svg xmlns="http://www.w3.org/2000/svg" width="264" height="112" fill="none"><rect width="264" height="112" fill="#F4F4FD" rx="4"/><g clip-path="url(#a)"><path fill="#4D5AE5" d="M129.851 53.93h2.132v9.594h-2.132V53.93ZM138.38 58.194h2.132v5.33h-2.132v-5.33ZM121.322 61.392h2.132v2.132h-2.132v-2.132ZM114.926 60.326h2.132v3.198h-2.132v-3.198Z"/><path fill="#2E2F42" d="M103.198 80.582h51.174a3.198 3.198 0 0 0 3.198-3.198v-4.265a3.198 3.198 0 0 0-3.198-3.198h-1.067V43.334l6.056-5.736a3.217 3.217 0 1 0-1.493-1.526l-4.563 4.325v-2.46a3.198 3.198 0 0 0-3.198-3.198h-42.644a3.199 3.199 0 0 0-3.199 3.199V69.92h-1.066A3.198 3.198 0 0 0 100 73.119v4.265a3.198 3.198 0 0 0 3.198 3.198Zm57.57-46.909a1.066 1.066 0 1 1 0 2.132 1.066 1.066 0 0 1 0-2.132Zm-54.371 4.265c0-.59.477-1.067 1.066-1.067h42.644c.589 0 1.066.478 1.066 1.067v4.477l-2.132 2.026V40.07c0-.589-.477-1.066-1.066-1.066h-38.38c-.589 0-1.066.477-1.066 1.066v26.652c0 .59.477 1.067 1.066 1.067h38.38c.589 0 1.066-.478 1.066-1.067V47.374l2.132-2.02V69.92h-44.776V37.938Zm9.595 13.859a3.198 3.198 0 1 0 2.214 5.497l3.706 1.86c.43.215.953.114 1.273-.246l7.877-8.863 7.744 5.803c.416.311.996.278 1.372-.079l6.731-6.375v16.262h-36.248v-24.52h36.248v5.32l-7.543 7.144-7.809-5.855a1.066 1.066 0 0 0-1.436.145l-7.986 8.985-2.986-1.493c.022-.128.036-.257.041-.387a3.198 3.198 0 0 0-3.198-3.198Zm1.066 3.198a1.067 1.067 0 1 1-2.133 0 1.067 1.067 0 0 1 2.133 0Zm6.396 17.058h10.661v1.066c0 .589-.477 1.066-1.066 1.066h-8.529a1.067 1.067 0 0 1-1.066-1.066v-1.066Zm-21.322 1.066c0-.589.478-1.066 1.066-1.066h18.124v1.066a3.198 3.198 0 0 0 3.198 3.198h8.529a3.199 3.199 0 0 0 3.199-3.198v-1.066h18.124c.588 0 1.066.477 1.066 1.066v4.265c0 .588-.478 1.066-1.066 1.066h-51.174a1.067 1.067 0 0 1-1.066-1.066v-4.265Z"/></g><defs><clipPath id="a"><path fill="#fff" d="M100 24h64v64h-64z"/></clipPath></defs></svg>
